img/footer-logo.svg

<?xml version="1.0" encoding="UTF-8" standalone="no"?>
<svg width="12px" height="15px" viewBox="0 0 12 15" version="1.1" xmlns="http://www.w3.org/2000/svg" xmlns:xlink="http://www.w3.org/1999/xlink" xmlns:sketch="http://www.bohemiancoding.com/sketch/ns">
    <!-- Generator: Sketch 3.0.4 (8053) - http://www.bohemiancoding.com/sketch -->
    <title>footer-logo</title>
    <desc>Created with Sketch.</desc>
    <defs></defs>
    <g id="Page-1" stroke="none" stroke-width="1" fill="none" fill-rule="evenodd" sketch:type="MSPage">
        <g id="footer-logo" sketch:type="MSArtboardGroup" fill="#A7A9AC">
            <g id="Shape-+-Shape-+-Shape" sketch:type="MSLayerGroup">
                <path d="M11.83875,0.21075 C11.58075,0.54375 11.20575,1.012875 10.737,1.56225 C9.795375,2.6535 8.461875,4.060875 6.933,5.203875 C6.171,5.772375 5.356875,6.274125 4.542,6.610125 C3.72825,6.948375 2.90775,7.107375 2.204625,7.066875 C1.852875,7.04925 1.53075,6.984 1.255875,6.897 C0.98025,6.8085 0.745875,6.707625 0.56175,6.601875 C0.464625,6.556125 0.388125,6.5025 0.318375,6.4575 C0.246375,6.41625 0.189375,6.375 0.1425,6.33975 C0.04875,6.2745 8.8817842e-16,6.239625 8.8817842e-16,6.239625 C8.8817842e-16,6.239625 0.042375,6.280875 0.1305,6.35775 C0.171375,6.397125 0.224625,6.445875 0.28875,6.49725 C0.358125,6.546375 0.428625,6.610875 0.5205,6.673125 C0.693,6.802125 0.921375,6.936375 1.197375,7.062 C1.472625,7.189875 1.80075,7.299375 2.173875,7.364625 C2.914125,7.49925 3.816375,7.435875 4.725,7.18425 C5.637,6.931125 6.55875,6.50925 7.43025,6.007125 C9.17475,5.00475 10.732125,3.71325 11.8395,2.69625 C11.89575,2.647125 11.950875,2.596875 12.00075,2.54925 L12.00075,0 C11.952375,0.06 11.90325,0.13275 11.83875,0.21075" id="Shape" sketch:type="MSShapeGroup"></path>
                <path d="M11.012625,5.34525 C10.074,6.439875 8.736375,7.84725 7.20825,8.992875 C6.445125,9.56325 5.6325,10.059375 4.8165,10.395 C4.003125,10.734 3.183,10.8975 2.479875,10.8525 C2.128125,10.834875 1.805625,10.77525 1.53075,10.68675 C1.255125,10.5945 1.02075,10.492875 0.83325,10.389375 C0.739125,10.341375 0.663375,10.2885 0.5925,10.243875 C0.520875,10.201875 0.46425,10.1595 0.417,10.12875 C0.322875,10.0605 0.27375,10.025625 0.27375,10.025625 C0.27375,10.025625 0.31725,10.065375 0.40575,10.142625 C0.446625,10.1835 0.4995,10.231125 0.563625,10.28175 C0.63225,10.334625 0.70425,10.3995 0.792,10.458 C0.96825,10.588125 1.196625,10.721625 1.4715,10.8465 C1.747125,10.975875 2.074875,11.08125 2.448,11.1495 C3.188625,11.286 4.090875,11.220375 4.9995,10.968 C5.911125,10.714875 6.833625,10.29375 7.703625,9.791625 C9.3945,8.827875 10.895625,7.587 12,6.5865 L12,4.147125 C11.75175,4.46025 11.416875,4.875 11.012625,5.34525" id="Shape" sketch:type="MSShapeGroup"></path>
                <path d="M11.13,9.129375 C10.1805,10.22025 8.84775,11.63175 7.318125,12.774375 C6.55275,13.342875 5.742,13.841625 4.92375,14.180625 C4.11375,14.518125 3.294375,14.677875 2.590875,14.6385 C2.239875,14.61525 1.917375,14.555625 1.642125,14.467875 C1.366875,14.374875 1.131,14.275125 0.945,14.16975 C0.850875,14.121375 0.77325,14.0685 0.702375,14.026875 C0.628875,13.98675 0.5745,13.941 0.528,13.91025 C0.435,13.84125 0.3825,13.805625 0.3825,13.805625 C0.3825,13.805625 0.428625,13.84725 0.514875,13.927875 C0.558375,13.964625 0.609375,14.015625 0.67575,14.064 C0.74025,14.116125 0.814875,14.179875 0.904125,14.239125 C1.08,14.368125 1.308,14.502 1.582125,14.631 C1.8585,14.76 2.187,14.866875 2.555625,14.931375 C3.299625,15.066 4.20075,15.001875 5.110125,14.749125 C6.01875,14.497875 6.942375,14.076 7.811625,13.57725 C9.444375,12.63975 10.9005,11.45025 11.99925,10.469625 L11.99925,8.063625 C11.766375,8.36175 11.472,8.725125 11.13,9.129375" id="Shape" sketch:type="MSShapeGroup"></path>
            </g>
        </g>
    </g>
</svg>

<svg viewBox="0 0 12 15" xmlns="http://www.w3.org/2000/svg"><g fill="#a7a9ac" fill-rule="evenodd"><path d="m11.839.211c-.258.333-.633.802-1.102 1.352-.942 1.091-2.275 2.499-3.804 3.642-.762.569-1.576 1.07-2.391 1.406-.814.338-1.634.497-2.337.457-.352-.018-.674-.083-.949-.17-.276-.088-.51-.189-.694-.295-.097-.046-.174-.099-.243-.144-.072-.041-.129-.082-.176-.118-.094-.065-.142-.1-.142-.1 0 0 .042.041.13.118.041.039.094.088.158.139.069.049.14.114.232.176.173.129.401.263.677.389.275.128.603.237.976.303.74.135 1.643.071 2.551-.18.912-.253 1.834-.675 2.705-1.177 1.744-1 3.302-2.294 4.409-3.311.056-.049.111-.099.161-.147v-2.549c-.048.06-.098.133-.162.211"/><path d="m11.01 5.345c-.939 1.095-2.276 2.502-3.804 3.648-.763.57-1.576 1.066-2.392 1.402-.813.339-1.633.503-2.337.457-.352-.018-.674-.077-.949-.166-.276-.092-.51-.194-.698-.297-.094-.048-.17-.101-.241-.146-.072-.042-.128-.084-.176-.115-.094-.068-.143-.103-.143-.103 0 0 .043.04.132.117.041.041.094.088.158.139.069.053.141.118.228.176.176.13.405.264.68.389.276.129.603.235.976.303.741.136 1.643.071 2.552-.181.912-.253 1.834-.674 2.704-1.176 1.691-.964 3.192-2.205 4.296-3.205v-2.439c-.248.313-.583.728-.987 1.198"/><path d="m11.13 9.129c-.95 1.091-2.282 2.502-3.812 3.645-.765.569-1.576 1.067-2.394 1.406-.81.338-1.629.497-2.333.458-.351-.023-.674-.083-.949-.171-.275-.093-.511-.193-.697-.298-.094-.048-.172-.101-.243-.143-.074-.04-.128-.086-.174-.117-.093-.069-.146-.105-.146-.105 0 0 .046.042.132.122.043.037.095.088.161.136.065.052.139.116.228.175.176.129.404.263.678.392.276.129.605.236.974.3.744.135 1.645.071 2.555-.182.909-.251 1.832-.673 2.702-1.172 1.633-.938 3.089-2.127 4.188-3.108v-2.406c-.233.298-.527.662-.869 1.066"/></g></svg>
